X:1
T:[ID 2-8b]
T:[ID 2-8b]
T:Bezeichnung standardisiert: Menuett Menuet
T:Urheber unbekannt Erstbeleg: 1767 (Datum in der schriftlichen Quelle) Datum in der hier transkribierten schriftlichen Quelle: 1799
C:Urheber unbekannt
C:Erstbeleg: 1767 (Datum in der schriftlichen Quelle)
C:Datum in der hier transkribierten schriftlichen Quelle: 1799
%%score 1 2
L:1/8
M:3/4
K:D
V:1 treble nm="Primo"
V:2 treble nm="Secondo"
V:1
 (3ABc | d2 d2 d2 | d4 eg | fafdec | d4 eg | fafdec | d2 defg | a2 bagf | e4 :: fg | a2 a2 a2 | %11
 b2 g4 | a2 f4 | .g2 .e2 (3ABc | d2 d2 d2 | d4 eg | fafdec | d4 :| %18
V:2
 !fermata!F2 | F2 F2 F2 | F4 c2 | dfdFGE | F4 c2 | dfdFGE | F2 FAde | f2 e2 d2 | c4 :: de | %10
 f2 f2 f2 | g2 e4 | f2 d4 | e2 c2 AG | F2 F2 F2 | F4 c2 | dfdFGE | F4 :| %18

